public/logos/AV.svg

<?xml version="1.0" encoding="UTF-8"?>
<svg xmlns="http://www.w3.org/2000/svg" xmlns:xlink="http://www.w3.org/1999/xlink" width="176pt" height="41.21pt" viewBox="0 0 176 41.21" version="1.1">
<defs>
<clipPath id="clip1">
  <path d="M 146 32 L 176 32 L 176 41.210938 L 146 41.210938 Z M 146 32 "/>
</clipPath>
</defs>
<g id="surface1">
<path style=" stroke:none;fill-rule:nonzero;fill:rgb(86.360168%,11.593628%,14.538574%);fill-opacity:1;" d="M 143.621094 -0.00390625 C 143.621094 -0.00390625 147.214844 15.574219 157.683594 28.023438 C 157.683594 28.023438 145.53125 27.636719 141.277344 19.390625 C 137.367188 11.808594 140.121094 4.058594 143.621094 -0.00390625 "/>
<g clip-path="url(#clip1)" clip-rule="nonzero">
<path style=" stroke:none;fill-rule:nonzero;fill:rgb(86.360168%,11.593628%,14.538574%);fill-opacity:1;" d="M 161.640625 32.234375 C 165.609375 35.988281 170.359375 39.171875 176 41.128906 C 176 41.128906 168.4375 41.753906 163.871094 39.566406 C 159.308594 37.375 154.558594 33.6875 151.621094 33.4375 C 148.683594 33.1875 146.964844 33.027344 146.183594 32.234375 L 161.640625 32.234375 "/>
</g>
<path style=" stroke:none;fill-rule:nonzero;fill:rgb(86.360168%,11.593628%,14.538574%);fill-opacity:1;" d="M 168.40625 32.578125 C 166.5625 28.171875 157.683594 28.023438 157.683594 28.023438 C 157.683594 28.023438 160.085938 30.707031 161.640625 32.234375 C 161.640625 32.234375 167.0625 32.078125 168.40625 32.578125 "/>
<path style=" stroke:none;fill-rule:nonzero;fill:rgb(86.360168%,11.593628%,14.538574%);fill-opacity:1;" d="M 22.058594 13 L 27.476562 13 L 32.394531 25.917969 L 37.144531 13 L 42.730469 13 L 34.199219 33.167969 C 34.199219 33.167969 33.25 33.167969 32.394531 33.167969 C 31.539062 33.167969 30.3125 33.085938 29.0625 29.75 C 27.8125 26.417969 22.058594 13 22.058594 13 "/>
<path style=" stroke:none;fill-rule:nonzero;fill:rgb(86.360168%,11.593628%,14.538574%);fill-opacity:1;" d="M 49.730469 33.167969 L 44.398438 33.167969 L 44.398438 13 L 49.730469 13 L 49.730469 33.167969 "/>
<path style=" stroke:none;fill-rule:nonzero;fill:rgb(86.360168%,11.593628%,14.538574%);fill-opacity:1;" d="M 50.148438 7.332031 C 50.148438 9.035156 48.765625 10.414062 47.0625 10.414062 C 45.359375 10.414062 43.980469 9.035156 43.980469 7.332031 C 43.980469 5.628906 45.359375 4.246094 47.0625 4.246094 C 48.765625 4.246094 50.148438 5.628906 50.148438 7.332031 "/>
<path style=" stroke:none;fill-rule:nonzero;fill:rgb(86.360168%,11.593628%,14.538574%);fill-opacity:1;" d="M 92.070312 33.167969 L 86.570312 33.167969 L 86.570312 19.414062 C 86.570312 19.414062 86.570312 16.5 83.484375 17.164062 C 80.976562 17.707031 79.152344 19.25 79.152344 19.25 L 79.152344 33.167969 L 73.652344 33.167969 L 73.652344 13 C 73.652344 13 78.484375 11.496094 78.902344 14.914062 C 78.902344 14.914062 81.984375 12.332031 85.820312 12.332031 C 89.652344 12.332031 92.070312 15.082031 92.070312 17.914062 L 92.070312 33.167969 "/>
<path style=" stroke:none;fill-rule:nonzero;fill:rgb(86.360168%,11.593628%,14.538574%);fill-opacity:1;" d="M 64.734375 28.042969 C 64.734375 28.042969 63.316406 29.085938 61.066406 29.085938 C 58.816406 29.085938 58.148438 27.625 58.148438 26.5 C 58.148438 25.207031 58.898438 23.667969 64.734375 24 Z M 69.984375 29.6875 C 69.984375 29.6875 69.984375 20.832031 69.984375 19.25 C 69.984375 16.914062 69.027344 12.207031 62.484375 12.25 C 56.230469 12.289062 53.898438 14.914062 53.898438 14.914062 L 55.980469 18.25 C 55.980469 18.25 56.980469 16.582031 60.984375 16.582031 C 64.984375 16.582031 64.484375 20.082031 64.484375 20.082031 C 53.480469 19.914062 52.898438 24.5 52.898438 27.25 C 52.898438 30 54.980469 33.335938 59.066406 33.335938 C 63.148438 33.335938 65.234375 31.335938 65.234375 31.335938 C 65.402344 33.085938 67.402344 33.167969 67.402344 33.167969 L 70.566406 33.167969 C 70.066406 33.167969 69.984375 29.6875 69.984375 29.6875 "/>
<path style=" stroke:none;fill-rule:nonzero;fill:rgb(86.360168%,11.593628%,14.538574%);fill-opacity:1;" d="M 125.113281 28.042969 C 125.113281 28.042969 123.699219 29.085938 121.449219 29.085938 C 119.195312 29.085938 118.53125 27.625 118.53125 26.5 C 118.53125 25.207031 119.28125 23.667969 125.113281 24 Z M 130.363281 29.6875 C 130.363281 29.6875 130.363281 20.832031 130.363281 19.25 C 130.363281 16.914062 129.40625 12.207031 122.863281 12.25 C 116.613281 12.289062 114.277344 14.914062 114.277344 14.914062 L 116.363281 18.25 C 116.363281 18.25 117.363281 16.582031 121.363281 16.582031 C 125.363281 16.582031 124.863281 20.082031 124.863281 20.082031 C 113.863281 19.914062 113.277344 24.5 113.277344 27.25 C 113.277344 30 115.363281 33.335938 119.445312 33.335938 C 123.53125 33.335938 125.613281 31.335938 125.613281 31.335938 C 125.78125 33.085938 127.78125 33.167969 127.78125 33.167969 L 130.949219 33.167969 C 130.449219 33.167969 130.363281 29.6875 130.363281 29.6875 "/>
<path style=" stroke:none;fill-rule:nonzero;fill:rgb(86.360168%,11.593628%,14.538574%);fill-opacity:1;" d="M 110.824219 18.414062 C 110.824219 18.414062 109.03125 16.582031 105.488281 16.582031 C 101.570312 16.582031 100.070312 20.414062 100.070312 23.667969 C 100.070312 26.917969 102.488281 29.167969 105.988281 29.167969 C 108.613281 29.167969 110.65625 27.582031 110.65625 27.582031 L 112.074219 31.5 C 112.074219 31.5 109.113281 33.585938 104.40625 33.585938 C 101.15625 33.585938 94.820312 31.417969 94.820312 23.582031 C 94.820312 15.75 99.988281 12.367188 104.988281 12.414062 C 109.449219 12.457031 111.199219 14 111.199219 14 L 110.824219 18.414062 "/>
<path style=" stroke:none;fill-rule:nonzero;fill:rgb(86.360168%,11.593628%,14.538574%);fill-opacity:1;" d="M 9.691406 21.601562 L 12.710938 13.167969 L 15.730469 21.601562 Z M 14.753906 5.164062 L 10.667969 5.164062 L 0 33.167969 L 5.585938 33.167969 L 7.835938 26.082031 L 17.503906 26.082031 L 20.335938 33.167969 L 25.921875 33.167969 L 14.753906 5.164062 "/>
</g>
</svg>

<svg xmlns="http://www.w3.org/2000/svg" width="176pt" height="54.947" viewBox="0 0 176 41.21"><defs><clipPath id="a"><path d="M146 32h30v9.21h-30Zm0 0"/></clipPath></defs><path d="M143.621-.004s3.594 15.578 14.063 28.027c0 0-12.153-.386-16.407-8.632-3.91-7.582-1.156-15.332 2.344-19.395" style="stroke:none;fill-rule:nonzero;fill:#dc1e25;fill-opacity:1"/><g clip-path="url(#a)"><path d="M161.64 32.234c3.97 3.754 8.72 6.938 14.36 8.895 0 0-7.562.625-12.129-1.563-4.562-2.191-9.312-5.879-12.25-6.129-2.937-.25-4.656-.41-5.437-1.203z" style="stroke:none;fill-rule:nonzero;fill:#dc1e25;fill-opacity:1"/></g><path d="M168.406 32.578c-1.844-4.406-10.722-4.555-10.722-4.555s2.402 2.684 3.957 4.211c0 0 5.422-.156 6.765.344M22.059 13h5.418l4.918 12.918L37.145 13h5.585L34.2 33.168h-1.805c-.856 0-2.083-.082-3.333-3.418C27.813 26.418 22.06 13 22.06 13M49.73 33.168h-5.332V13h5.332zM50.148 7.332a3.084 3.084 0 1 1-6.168-.004 3.084 3.084 0 0 1 6.168.004M92.07 33.168h-5.5V19.414s0-2.914-3.086-2.25c-2.507.543-4.332 2.086-4.332 2.086v13.918h-5.5V13s4.832-1.504 5.25 1.914c0 0 3.082-2.582 6.918-2.582 3.832 0 6.25 2.75 6.25 5.582zM64.734 28.043s-1.418 1.043-3.668 1.043-2.918-1.461-2.918-2.586c0-1.293.75-2.832 6.586-2.5Zm5.25 1.645V19.25c0-2.336-.957-7.043-7.5-7-6.254.04-8.586 2.664-8.586 2.664l2.082 3.336s1-1.668 5.004-1.668c4 0 3.5 3.5 3.5 3.5-11.004-.168-11.586 4.418-11.586 7.168s2.082 6.086 6.168 6.086c4.082 0 6.168-2 6.168-2 .168 1.75 2.168 1.832 2.168 1.832h3.164c-.5 0-.582-3.48-.582-3.48M125.113 28.043s-1.414 1.043-3.664 1.043c-2.254 0-2.918-1.461-2.918-2.586 0-1.293.75-2.832 6.582-2.5Zm5.25 1.645V19.25c0-2.336-.957-7.043-7.5-7-6.25.04-8.586 2.664-8.586 2.664l2.086 3.336s1-1.668 5-1.668 3.5 3.5 3.5 3.5c-11-.168-11.586 4.418-11.586 7.168s2.086 6.086 6.168 6.086c4.086 0 6.168-2 6.168-2 .168 1.75 2.168 1.832 2.168 1.832h3.168c-.5 0-.586-3.48-.586-3.48M110.824 18.414s-1.793-1.832-5.336-1.832c-3.918 0-5.418 3.832-5.418 7.086 0 3.25 2.418 5.5 5.918 5.5 2.625 0 4.668-1.586 4.668-1.586l1.418 3.918s-2.96 2.086-7.668 2.086c-3.25 0-9.586-2.168-9.586-10.004 0-7.832 5.168-11.215 10.168-11.168C109.45 12.457 111.2 14 111.2 14zM9.691 21.602l3.02-8.434 3.02 8.434Zm5.063-16.438h-4.086L0 33.168h5.586l2.25-7.086h9.668l2.832 7.086h5.586z" style="stroke:none;fill-rule:nonzero;fill:#dc1e25;fill-opacity:1"/></svg>
